X: 29629
T: North Star, The
R: jig
M: 6/8
K: Dmajor
|:d2A d f/g/a|gfd afd|B2a afd|c2a age|
d2A d f/g/a|gfd afd|Baa caa|1 ~d3 afe:|2 ~d3 dAB||
d2c dAA|efc d2A|Bcd eAg-|gfd eAf|
d2c dAA|efc d2A|Bcd eAc|dAf AeA|
d2c dAA|efc d2A|Bcd eag-|gfd eAf|
d2c ~d3|agf d2A|Baa caa|~d3 afe||
|:BGc GdG|BGc GdG|cAd AeA|cAe ddc|
BGc GdG|BGc GdG|1 cAd AeA|cAf eed:|2 cAc dcd|ede fga||

